svg/24/film--filled.svg

<svg width="24" height="24" viewBox="0 0 24 24" fill="currentColor" xmlns="http://www.w3.org/2000/svg"><path fill-rule="evenodd" clip-rule="evenodd" d="M3.63777 6.15274C2.57083 6.43863 1.93767 7.5353 2.22355 8.60223L2.99998 11.4999L2.99998 19.0001C2.99998 20.1047 3.89541 21.0001 4.99998 21.0001H19C20.1046 21.0001 21 20.1047 21 19.0001V12.0001C21 10.8955 20.1046 10.0001 19 10.0001H8.59778L18.4548 7.35891C19.5218 7.07302 20.1549 5.97635 19.869 4.90942L19.6102 3.94349C19.3243 2.87656 18.2277 2.24339 17.1607 2.52928L3.63777 6.15274ZM17.549 3.97817L16.8989 4.15234L15.6227 6.56485L18.0666 5.91002C18.3333 5.83855 18.4916 5.56438 18.4201 5.29765L18.1613 4.33172C18.0899 4.06499 17.8157 3.9067 17.549 3.97817ZM12.5523 5.31702L14.9217 4.68213L13.6455 7.09465L11.276 7.72954L12.5523 5.31702ZM10.5751 5.84682L9.29883 8.25933L6.92938 8.89422L8.20561 6.48171L10.5751 5.84682ZM6.22839 7.0115L4.95217 9.42402L4.06067 9.66289L3.67244 8.214C3.60097 7.94727 3.75926 7.6731 4.02599 7.60163L6.22839 7.0115Z"/></svg>

<svg xmlns="http://www.w3.org/2000/svg" width="24" height="24" fill="currentColor" viewBox="0 0 24 24">
  <path fill-rule="evenodd" d="M3.638 6.153a2 2 0 0 0-1.414 2.45L3 11.5V19a2 2 0 0 0 2 2h14a2 2 0 0 0 2-2v-7a2 2 0 0 0-2-2H8.598l9.857-2.641a2 2 0 0 0 1.414-2.45l-.259-.965a2 2 0 0 0-2.45-1.415L3.639 6.153Zm13.911-2.175-.65.174-1.276 2.413 2.444-.655a.5.5 0 0 0 .353-.612l-.259-.966a.5.5 0 0 0-.612-.354Zm-4.997 1.34 2.37-.636-1.276 2.413-2.37.635 1.276-2.413Zm-1.977.529L9.3 8.259l-2.37.635 1.277-2.412 2.37-.635ZM6.23 7.012 4.952 9.424l-.891.239-.388-1.449a.5.5 0 0 1 .353-.612l2.203-.59Z" clip-rule="evenodd"/>
</svg>
